icons/virus_research_alt.svg

<svg width="48" height="48" viewBox="0 0 48 48" fill="none" xmlns="http://www.w3.org/2000/svg">
<path fill-rule="evenodd" clip-rule="evenodd" d="M35 8C35.5523 8 36 7.55228 36 7C36 6.44772 35.5523 6 35 6H33C32.4477 6 32 6.44772 32 7C32 7.55228 32.4477 8 33 8V9.10002C32.3616 9.2296 31.7674 9.48081 31.2426 9.8284L30.4143 9.00008C30.8048 8.60955 30.8048 7.97639 30.4143 7.58586C30.0237 7.19534 29.3906 7.19534 29 7.58586L28.3024 8.28356L28.2929 8.29289L28.2836 8.30235L27.5858 9.00008C27.1953 9.3906 27.1953 10.0238 27.5858 10.4143C27.9764 10.8048 28.6095 10.8048 29 10.4143L29.8284 11.2426C29.4808 11.7674 29.2296 12.3616 29.1 13H28C28 12.4477 27.5523 12 27 12C26.4477 12 26 12.4477 26 13V15C26 15.5523 26.4477 16 27 16C27.5523 16 28 15.5523 28 15H29.1C29.2296 15.6384 29.4808 16.2326 29.8284 16.7574L29 17.5859C28.6094 17.1953 27.9763 17.1953 27.5857 17.5859C27.1952 17.9764 27.1952 18.6096 27.5857 19.0001L29 20.4143C29.3905 20.8048 30.0236 20.8048 30.4142 20.4143C30.8047 20.0238 30.8047 19.3906 30.4142 19.0001L31.2426 18.1716C31.7674 18.5192 32.3616 18.7704 33 18.9V20C32.4477 20 32 20.4477 32 21C32 21.5523 32.4477 22 33 22H35C35.5523 22 36 21.5523 36 21C36 20.4477 35.5523 20 35 20V18.9C35.6384 18.7704 36.2326 18.5192 36.7574 18.1716L37.5858 19.0001C37.1953 19.3906 37.1953 20.0238 37.5858 20.4143C37.9764 20.8048 38.6095 20.8048 39 20.4143L40.4143 19.0001C40.8048 18.6096 40.8048 17.9764 40.4143 17.5859C40.0237 17.1953 39.3906 17.1953 39 17.5859L38.1716 16.7574C38.5192 16.2326 38.7704 15.6384 38.9 15H40C40 15.5523 40.4477 16 41 16C41.5523 16 42 15.5523 42 15V13C42 12.4477 41.5523 12 41 12C40.4477 12 40 12.4477 40 13H38.9C38.7704 12.3616 38.5192 11.7674 38.1716 11.2426L39 10.4141C39.3906 10.8047 40.0237 10.8047 40.4143 10.4141C40.8048 10.0236 40.8048 9.39045 40.4143 8.99992L39 7.58571C38.6095 7.19519 37.9764 7.19519 37.5858 7.58571C37.1953 7.97624 37.1953 8.6094 37.5858 8.99992L36.7574 9.8284C36.2326 9.48081 35.6384 9.2296 35 9.10002V8ZM34 11C32.3431 11 31 12.3431 31 14C31 15.6569 32.3431 17 34 17C35.6569 17 37 15.6569 37 14C37 12.3431 35.6569 11 34 11ZM14.951 11.1567L13.451 8.55859L15.183 7.55859L16.683 10.1567L18.4151 9.15667L19.5004 11.0366C20.7154 10.8106 21.994 11.3556 22.6471 12.4868L26.6471 19.415C27.4755 20.8499 26.9839 22.6847 25.549 23.5131L24.683 24.0131L25.683 25.7451L23.951 26.7451L22.951 25.0131L22.0849 25.5131C20.6501 26.3415 18.8153 25.8499 17.9869 24.415L15.211 19.6071C12.6699 21.3134 11 24.2124 11 27.5001C11 28.3537 11.1123 29.1799 11.3227 29.9653C12.5834 29.3471 14.0012 29 15.5 29C18.6736 29 21.4837 30.5562 23.209 32.947L36.8433 25.0753L37.8433 26.8073L24.2021 34.683C24.7152 35.8512 25 37.1423 25 38.5C25 39.0099 24.9597 39.511 24.8821 40H39C39.5523 40 40 40.4477 40 41C40 41.5523 39.5523 42 39 42H23.6497C23.6344 42.0004 23.6191 42.0004 23.6038 42H6.63473L6.41771 41.2937C6.14592 40.4092 6 39.4707 6 38.5C6 35.4973 7.39305 32.82 9.56813 31.0791C9.19923 29.9517 9 28.7484 9 27.5001C9 23.4694 11.0738 19.9246 14.2092 17.8719L13.9869 17.4868C13.3338 16.3556 13.5011 14.9758 14.3043 14.0366L13.2189 12.1567L14.951 11.1567ZM19.549 13.1208L16.0849 15.1208C15.6066 15.3969 15.4428 16.0085 15.7189 16.4868L19.7189 23.415C19.9951 23.8933 20.6066 24.0572 21.0849 23.781L24.549 21.781C25.0273 21.5049 25.1912 20.8933 24.9151 20.415L20.9151 13.4868C20.6389 13.0085 20.0273 12.8446 19.549 13.1208ZM21.4654 33.9536L18.6567 35.5753L19.6567 37.3073L22.4562 35.691C22.8069 36.5586 23 37.5067 23 38.5C23 39.0144 22.9484 39.516 22.8502 40H8.14983C8.05165 39.516 8 39.0144 8 38.5C8 34.3579 11.3579 31 15.5 31C17.9329 31 20.0952 32.1584 21.4654 33.9536Z" fill="black"/>
</svg>

<svg
  xmlns="http://www.w3.org/2000/svg"
  width="24"
  height="24"
  viewBox="0 0 24 24"
  fill="none"
  stroke="currentColor"
  stroke-width="2"
  stroke-linecap="round"
  stroke-linejoin="round"
>
  <path
    fill-rule="evenodd"
    d="M35 8a1 1 0 1 0 0-2h-2a1 1 0 1 0 0 2v1.1c-.638.13-1.233.38-1.757.728L30.414 9A1 1 0 0 0 29 7.586l-.698.698-.01.009-.008.01-.698.697A1 1 0 0 0 29 10.414l.828.829A5 5 0 0 0 29.1 13H28a1 1 0 1 0-2 0v2a1 1 0 1 0 2 0h1.1c.13.638.38 1.233.728 1.757l-.828.829A1 1 0 1 0 27.586 19L29 20.414A1 1 0 0 0 30.414 19l.829-.828A5 5 0 0 0 33 18.9V20a1 1 0 1 0 0 2h2a1 1 0 1 0 0-2v-1.1a5 5 0 0 0 1.757-.728l.829.828A1 1 0 0 0 39 20.414L40.414 19A1 1 0 0 0 39 17.586l-.828-.829A5 5 0 0 0 38.9 15H40a1 1 0 1 0 2 0v-2a1 1 0 1 0-2 0h-1.1a5 5 0 0 0-.728-1.757l.828-.829A1 1 0 1 0 40.414 9L39 7.586A1 1 0 1 0 37.586 9l-.829.828A5 5 0 0 0 35 9.1zm-1 3a3 3 0 1 0 0 6 3 3 0 0 0 0-6m-19.049.157-1.5-2.598 1.732-1 1.5 2.598 1.732-1 1.085 1.88a3 3 0 0 1 3.147 1.45l4 6.928a3 3 0 0 1-1.098 4.098l-.866.5 1 1.732-1.732 1-1-1.732-.866.5a3 3 0 0 1-4.098-1.098l-2.776-4.808A9.49 9.49 0 0 0 11 27.5c0 .854.112 1.68.323 2.465A9.46 9.46 0 0 1 15.5 29a9.49 9.49 0 0 1 7.709 3.947l13.634-7.872 1 1.732-13.64 7.876a9.567 9.567 0 0 1 .68 5.317H39a1 1 0 1 1 0 2H6.634l-.216-.706A9.5 9.5 0 0 1 6 38.5a9.48 9.48 0 0 1 3.568-7.42A11.5 11.5 0 0 1 9 27.5a11.49 11.49 0 0 1 5.21-9.628l-.223-.385a3 3 0 0 1 .317-3.45l-1.085-1.88zm4.598 1.964-3.464 2a1 1 0 0 0-.366 1.366l4 6.928a1 1 0 0 0 1.366.366l3.464-2a1 1 0 0 0 .366-1.366l-4-6.928a1 1 0 0 0-1.366-.366m1.916 20.833-2.808 1.621 1 1.732 2.8-1.616A7.538 7.538 0 0 1 22.85 40H8.15a7.5 7.5 0 0 1 13.316-6.046"
    clip-rule="evenodd"
  />
</svg>
